X:494
T:Old Noll's Jig. (p)1702.PLFD.494
M:6/4
L:1/4
Q:3/4=120
S:Playford, Dancing Master,Supp.to 11th Ed.,1702.
O:England
N:Old Noll,Copperface,Great Leviathan of Men,
N:His Noseship,The Sagest of Usurpers,
N:The Town Bull of Ely,etc.=Oliver Cromwell
Z:Chris Partington.
K:F
E|FEDD2E|FEDD2d|^c2dA2d|^c2dA2E|
FEDD2E|FEDD2e|fedc>=BA|A3-A2:|
|:c|ABcF2c|ABcF2f|defB2d|BcdG2g|
efgc2e|fgad2a|bagg3|f3-f2a|
|fgadef|efg^cde|defefd|^c3A2a|
bagaAa|bagaAa|bagf>ed|d3-d2:|
